X:1
T:Fanny Frail
M:4/4
R:Polka
L:1/4
K:D
FABc | d/2c/2d/2e/2 f a |gfed | cBAG |
FABc | d/2c/2d/2e/2 f a |gfe B/2c/2 | dfd2:|
e2e2 | gfe2 | gfed | cBAG |
FABc | d/2c/2d/2e/2 f a |gfe B/2c/2 | dfd2:|
